X:1
T:Chanson triste
T:Chanson triste
T:Vasily Kalinnikov
T:by IMSLP - Pubblico dominio
T:by IMSLP - Pubblico dominio
C:Vasily Kalinnikov
Z:by IMSLP - Pubblico dominio
%%score { ( 1 3 ) | ( 2 4 5 ) }
L:1/8
Q:1/4=80
M:5/4
K:Bb
V:1 treble nm="Piano" snm="Pno."
V:3 treble 
V:2 treble 
V:4 treble 
V:5 treble 
V:1
!p!"^Andante" (Bc d2) g2{fg} (fdBc) | (GA B2 c2) [^FAd]4 | (Bc d2) b2{ab} (ag=fe) | %3
w: |||
{de} (dc) (f2 c2)!p! [Dd]4 | (Bc d2) g2{fg} (fdBc) | (GA B2 c2) [^FAd]4 | %6
w: |||
!p! (Bc d2){bc'} (ba c'bag) |{fg} (fe d2) a2 [Bdg]4 |!mf! (B,3 C DE) (G2 F2) | %9
w: |||
{Bc} (BGFEDE) (G2 F2) | (EFGdcG){=Bc} (B=ABc) | (^cd=e=ba_a) [=Bdg]4 |!mf! (B,3 C DE) (G2 F2) | %13
w: ||||
{Bc} (BGFEDE) (G2 C2) |"_cresc."{cd} ((c=AGF=EF)){F} (fd{cd}cB) | %15
w: ||
!f! ([Gg][Bb]{/[Bb]}[Ga][Fg][Ff][Ee] [Dd]3) !fermata!z |!pp! (Bc d2) g2{fg} (fdBc) | %17
w: |* mezza~voce * * * * * *|
 (GA B2 c2) [^FAd]4 | (Bc d2) b2{ab} (ag=fe) |{de} (dc) (f2 c2) [Dd]4 | (Bc d2) g2{fg} (fdBc) | %21
w: ||||
 (GA B2 c2) [^FAd]4 | (Bc d2){ac'} (ba c'bag) |{fg} (fe d2) a2 !fermata![Bdg]4 |] %24
w: |||
V:2
!ped! [G,DG]6!ped-up!!ped! [B,DF]4!ped-up! |!ped! [CE]6!ped-up!!ped! (DCB,!ped-up!A,) | %2
!ped! [G,DG]6!ped-up![K:bass]!ped! z2!ped-up![K:treble] [GB]2 | %3
[K:bass]!ped! z2!ped-up![K:treble] [EF]4[K:bass]!ped! (([B,,B,]2!ped-up!!ped! [A,,A,]2))!ped-up! | %4
!ped! [G,,G,]!ped-up![K:treble]!ped! [G,B,DG]4!ped-up!!ped! [B,DF]4!ped-up! z | %5
!ped! [CE]6!ped-up!!ped! (DCB,!ped-up!A,) | %6
!ped! [G,DG]6!ped-up![K:bass]!ped! z2!ped-up![K:treble] [GBe]2 | %7
[K:bass]!ped! z2!ped-up![K:treble] [D^FAc]4!ped! [G,DG]2!ped-up![K:bass]!ped! [G,,,G,,]2!ped-up! | %8
!ped! z2!ped-up! [E,G,]4!ped! [E,_A,_C]4!ped-up! | %9
!ped! z2!ped-up! [G,B,]4!ped! [E,_A,=B,]4!ped-up! | %10
!ped! z2!ped-up! [E,G,C]4!ped! z2!ped-up! [D,G,=B,]2 | %11
!ped! [D,^F,C]4[K:treble]!ped! [D^Fc]2!ped-up!!ped! [G,DG]2[K:bass] [=F,,=F,]2 | %12
!ped! z2 [E,G,]4!ped-up!!ped! [E,_A,_C]4!ped-up! | %13
!ped! z2 [G,B,]4!ped-up!!ped! [E,G,_A,=B,]4!ped-up! | %14
!ped! z2 (C2!ped-up!!ped! ^C2)!ped-up!!ped! z2 [D,G,=B,]2!ped-up! | %15
!ped! z2 B,2!ped! A,2!ped! z2!ped-up! !fermata!D2!ped-up! | %16
[K:treble]!ped! [G,DG]6!ped-up!!ped! [B,DF]4!ped-up! |!ped! [CE]6!ped-up!!ped! (DCB,!ped-up!A,) | %18
!ped! [G,DG]6!ped-up![K:bass]!ped! z2!ped-up![K:treble] [GB]2 | %19
[K:bass]!ped! z2!ped-up![K:treble] [EF]4[K:bass]!ped! (([B,,B,]2!ped-up!!ped! [A,,A,]2))!ped-up! | %20
!ped! [G,,G,]2!ped-up![K:treble]!ped! [G,B,DG]4!ped-up!!ped! [B,DF]4!ped-up! | %21
!ped! [CE]6!ped-up!!ped! (DCB,!ped-up!A,) | %22
!ped! [G,DG]6!ped-up![K:bass]!ped! z2!ped-up![K:treble] [GBe]2 | %23
[K:bass]!ped! z2!ped-up![K:treble] [D^FAc]4!ped-up!!ped! !fermata![G,DG]4 |] %24
V:3
 x10 | z2 G4 x4 | x10 | x2 G4 [FB]2 [^Fc]2 | x10 | z2 G4 x4 | x10 | x10 | x6 D4 | x6 D4 | x10 | %11
 x10 | x6 D4 | x10 | x10 | [Be]4 x6 | x10 | z2 G4 x4 | x10 | x2 G4 [FB]2 [^Fc]2 | x10 | z2 G4 x4 | %22
 x10 | x10 |] %24
V:4
 x10 | x10 | x6[K:bass] [C,,C,]4[K:treble] |[K:bass] [F,,F,]6[K:treble][K:bass] x4 | %4
 x[K:treble] x9 | x10 | x6[K:bass] [C,,C,]4[K:treble] |[K:bass] [D,,D,]6[K:treble] x2[K:bass] x2 | %8
 [E,,E,]6 x4 | [E,,E,]6 x4 | [C,,C,]6 [D,,D,]4 | x4[K:treble] x4[K:bass] x2 | [E,,E,]6 x4 | %13
 [E,,E,]6 x4 | [F,,F,]6 [B,,,B,,]4 | C,,6 [D,,D,]3 z |[K:treble] x10 | x10 | %18
 x6[K:bass] [C,,C,]4[K:treble] |[K:bass] [F,,F,]6[K:treble][K:bass] x4 | x2[K:treble] x8 | x10 | %22
 x6[K:bass] [C,,C,]4[K:treble] |[K:bass] [D,,D,]6[K:treble] x4 |] %24
V:5
 x10 | x10 | x6[K:bass] x2[K:treble] x2 |[K:bass] x2[K:treble] x4[K:bass] x4 | x[K:treble] x9 | %5
 x10 | x6[K:bass] x2[K:treble] x2 |[K:bass] x2[K:treble] x6[K:bass] x2 | x10 | x10 | x10 | %11
 x4[K:treble] x4[K:bass] x2 | x10 | x10 | x2 [F,A,]4 x4 | x2 [G,E]4 x4 |[K:treble] x10 | x10 | %18
 x6[K:bass] x2[K:treble] x2 |[K:bass] x2[K:treble] x4[K:bass] x4 | x2[K:treble] x8 | x10 | %22
 x6[K:bass] x2[K:treble] x2 |[K:bass] x2[K:treble] x8 |] %24

